libs/icons/src/svg/calendar-simple.svg

<svg width="16" height="16" viewBox="0 0 16 16" fill="none" xmlns="http://www.w3.org/2000/svg">
<g clip-path="url(#clip0_3_3762)">
<path fill-rule="evenodd" clip-rule="evenodd" d="M4 0C4.36819 0 4.66666 0.298477 4.66666 0.666667V1.33333H11.3333V0.666667C11.3333 0.298477 11.6318 0 12 0C12.3682 0 12.6667 0.298477 12.6667 0.666667V1.33333H14C15.1046 1.33333 16 2.22876 16 3.33333V5.33334V13.3333C16 14.4379 15.1046 15.3333 14 15.3333H2C0.895431 15.3333 0 14.4379 0 13.3333V5.33334V3.33333C0 2.22876 0.895431 1.33333 2 1.33333H3.33333V0.666667C3.33333 0.298477 3.63181 0 4 0ZM11.3333 2.66667L4.66666 2.66666V2.66667C4.66666 3.03486 4.36819 3.33333 4 3.33333C3.63181 3.33333 3.33333 3.03486 3.33333 2.66667V2.66666H2C1.63181 2.66666 1.33333 2.96514 1.33333 3.33333V4.66667H14.6667V3.33333C14.6667 2.96514 14.3682 2.66666 14 2.66666L12.6667 2.66667C12.6667 3.03486 12.3682 3.33333 12 3.33333C11.6318 3.33333 11.3333 3.03486 11.3333 2.66667ZM14.6667 6.00001V13.3333C14.6667 13.7015 14.3682 14 14 14H2C1.63181 14 1.33333 13.7015 1.33333 13.3333V6.00001H14.6667Z" fill="#202327"/>
</g>
<defs>
<clipPath id="clip0_3_3762">
<rect width="16" height="16" fill="white"/>
</clipPath>
</defs>
</svg>

<svg xmlns="http://www.w3.org/2000/svg" viewBox="0 0 16 16" class="sageicon"><path fill-rule="evenodd" d="M4 0c.368 0 .667.298.667.667v.666h6.666V.667a.667.667 0 0 1 1.334 0v.666H14a2 2 0 0 1 2 2v10a2 2 0 0 1-2 2H2a2 2 0 0 1-2-2v-10a2 2 0 0 1 2-2h1.333V.667C3.333.298 3.632 0 4 0Zm7.333 2.667H4.667a.667.667 0 1 1-1.334 0H2a.667.667 0 0 0-.667.666v1.334h13.334V3.333A.667.667 0 0 0 14 2.667h-1.333a.667.667 0 0 1-1.334 0ZM14.667 6v7.333A.667.667 0 0 1 14 14H2a.667.667 0 0 1-.667-.667V6h13.334Z"/></svg>
